src/assets/cards/7D.svg

<svg clip-rule="evenodd" fill-rule="evenodd" stroke-linejoin="round" stroke-miterlimit="2" viewBox="0 0 934 1300" xmlns="http://www.w3.org/2000/svg"><g fill="#d40000" fill-rule="nonzero"><path d="m139.149 245.354c41.333-40.342 68.479-84.322 94.446-126.621 22.767 46.539 55.445 87.258 90.782 126.621-37.808 39.038-67.111 80.773-90.67 124.653-26.117-44.984-53.614-85.715-94.558-124.653z"/><path d="m139.149 663.053c41.333-40.342 68.479-84.323 94.446-126.622 22.767 46.539 55.445 87.258 90.782 126.622-37.808 39.036-67.111 80.776-90.67 124.657-26.117-44.981-53.614-85.715-94.558-124.657z"/><path d="m139.149 1073.88c41.333-40.34 68.479-84.322 94.446-126.62 22.767 46.542 55.445 87.26 90.782 126.62-37.808 39.04-67.111 80.78-90.67 124.66-26.117-44.98-53.614-85.72-94.558-124.66z"/><path d="m374.291 454.204c41.333-40.343 68.479-84.323 94.445-126.622 22.768 46.539 55.446 87.258 90.771 126.622-37.796 39.037-67.1 80.772-90.658 124.652-26.117-44.984-53.614-85.715-94.558-124.652z"/><path d="m603.863 245.354c41.346-40.342 68.492-84.322 94.446-126.621 22.78 46.539 55.445 87.258 90.783 126.621-37.809 39.038-67.112 80.773-90.658 124.653-26.117-44.984-53.614-85.715-94.571-124.653z"/><path d="m603.863 663.053c41.346-40.342 68.492-84.323 94.446-126.622 22.78 46.539 55.445 87.258 90.783 126.622-37.809 39.036-67.112 80.776-90.658 124.657-26.117-44.981-53.614-85.715-94.571-124.657z"/><path d="m603.863 1073.88c41.346-40.34 68.492-84.322 94.446-126.62 22.78 46.542 55.445 87.26 90.783 126.62-37.809 39.04-67.112 80.78-90.658 124.66-26.117-44.98-53.614-85.72-94.571-124.66z"/><path d="m823.312 1043.79c16.935-16.53 28.062-34.54 38.699-51.871 9.321 19.061 22.705 35.741 37.181 51.871-15.492 15.99-27.484 33.09-37.143 51.06-10.7-18.42-21.953-35.11-38.737-51.06z"/><path d="m36.587 269.377c16.935-16.521 28.049-34.535 38.687-51.871 9.332 19.068 22.717 35.751 37.193 51.871-15.492 15.994-27.497 33.091-37.143 51.067-10.701-18.427-21.965-35.111-38.737-51.067z"/><path d="m53.033 194.186c8.881-46.2 18.364-80.872 43.252-118.53h-50.566v16.207h-13.435v-30.545h73.974l9.119 14.338c-26.418 28.325-50.616 119.873-46.325 118.53z"/><path d="m880.301 1105.81c-8.882 46.21-18.378 80.88-43.253 118.54h50.566v-16.21h13.435v30.54h-73.973l-9.12-14.33c26.418-28.32 50.616-119.87 46.326-118.54z"/></g></svg>

<?xml version="1.0" encoding="UTF-8" standalone="no"?>
<!DOCTYPE svg PUBLIC "-//W3C//DTD SVG 1.1//EN" "http://www.w3.org/Graphics/SVG/1.1/DTD/svg11.dtd">
<svg width="100%" height="100%" viewBox="0 0 934 1300" version="1.1" xmlns="http://www.w3.org/2000/svg" xmlns:xlink="http://www.w3.org/1999/xlink" xml:space="preserve" xmlns:serif="http://www.serif.com/" style="fill-rule:evenodd;clip-rule:evenodd;stroke-linejoin:round;stroke-miterlimit:2;">
    <g id="_7D" serif:id="7D">
        <g id="path3397-3">
            <path d="M139.149,245.354C180.482,205.012 207.628,161.032 233.595,118.733C256.362,165.272 289.04,205.991 324.377,245.354C286.569,284.392 257.266,326.127 233.707,370.007C207.59,325.023 180.093,284.292 139.149,245.354Z" style="fill:rgb(212,0,0);fill-rule:nonzero;"/>
        </g>
        <g id="path3399-5">
            <path d="M139.149,663.053C180.482,622.711 207.628,578.73 233.595,536.431C256.362,582.97 289.04,623.689 324.377,663.053C286.569,702.089 257.266,743.829 233.707,787.71C207.59,742.729 180.093,701.995 139.149,663.053Z" style="fill:rgb(212,0,0);fill-rule:nonzero;"/>
        </g>
        <g id="path3401-9">
            <path d="M139.149,1073.88C180.482,1033.54 207.628,989.558 233.595,947.26C256.362,993.802 289.04,1034.52 324.377,1073.88C286.569,1112.92 257.266,1154.66 233.707,1198.54C207.59,1153.56 180.093,1112.82 139.149,1073.88Z" style="fill:rgb(212,0,0);fill-rule:nonzero;"/>
        </g>
        <g id="path3403-9">
            <path d="M374.291,454.204C415.624,413.861 442.77,369.881 468.736,327.582C491.504,374.121 524.182,414.84 559.507,454.204C521.711,493.241 492.407,534.976 468.849,578.856C442.732,533.872 415.235,493.141 374.291,454.204Z" style="fill:rgb(212,0,0);fill-rule:nonzero;"/>
        </g>
        <g id="path3407-8">
            <path d="M603.863,245.354C645.209,205.012 672.355,161.032 698.309,118.733C721.089,165.272 753.754,205.991 789.092,245.354C751.283,284.392 721.98,326.127 698.434,370.007C672.317,325.023 644.82,284.292 603.863,245.354Z" style="fill:rgb(212,0,0);fill-rule:nonzero;"/>
        </g>
        <g id="path3409">
            <path d="M603.863,663.053C645.209,622.711 672.355,578.73 698.309,536.431C721.089,582.97 753.754,623.689 789.092,663.053C751.283,702.089 721.98,743.829 698.434,787.71C672.317,742.729 644.82,701.995 603.863,663.053Z" style="fill:rgb(212,0,0);fill-rule:nonzero;"/>
        </g>
        <g id="path3411">
            <path d="M603.863,1073.88C645.209,1033.54 672.355,989.558 698.309,947.26C721.089,993.802 753.754,1034.52 789.092,1073.88C751.283,1112.92 721.98,1154.66 698.434,1198.54C672.317,1153.56 644.82,1112.82 603.863,1073.88Z" style="fill:rgb(212,0,0);fill-rule:nonzero;"/>
        </g>
        <g id="path3718">
            <path d="M823.312,1043.79C840.247,1027.26 851.374,1009.25 862.011,991.919C871.332,1010.98 884.716,1027.66 899.192,1043.79C883.7,1059.78 871.708,1076.88 862.049,1094.85C851.349,1076.43 840.096,1059.74 823.312,1043.79Z" style="fill:rgb(212,0,0);fill-rule:nonzero;"/>
        </g>
        <g id="path3720">
            <path d="M36.587,269.377C53.522,252.856 64.636,234.842 75.274,217.506C84.606,236.574 97.991,253.257 112.467,269.377C96.975,285.371 84.97,302.468 75.324,320.444C64.623,302.017 53.359,285.333 36.587,269.377Z" style="fill:rgb(212,0,0);fill-rule:nonzero;"/>
        </g>
        <g id="path7110-1">
            <path d="M53.033,194.186C61.914,147.986 71.397,113.314 96.285,75.656L45.719,75.656L45.719,91.863L32.284,91.863L32.284,61.318L106.258,61.318L115.377,75.656C88.959,103.981 64.761,195.529 69.052,194.186L53.033,194.186Z" style="fill:rgb(212,0,0);fill-rule:nonzero;"/>
        </g>
        <g id="path7126-8">
            <path d="M880.301,1105.81C871.419,1152.02 861.923,1186.69 837.048,1224.35L887.614,1224.35L887.614,1208.14L901.049,1208.14L901.049,1238.68L827.076,1238.68L817.956,1224.35C844.374,1196.03 868.572,1104.48 864.282,1105.81L880.301,1105.81Z" style="fill:rgb(212,0,0);fill-rule:nonzero;"/>
        </g>
    </g>
</svg>
